lib/brands/icons/storybook.svg

<svg xmlns="http://www.w3.org/2000/svg" fill="none" aria-hidden="true" viewBox="0 0 48 48"><g id="storybook-Icon"><g id="Group"><mask id="mask0_94_18762" width="34" height="40" x="7" y="4" maskUnits="userSpaceOnUse" style="mask-type:alpha"><g id="mask-2"><path id="Vector" fill="white" d="M9.18782 40.8587L7.94871 7.84179C7.90778 6.75137 8.74388 5.82725 9.83294 5.75918L37.9161 4.00398C39.0247 3.9347 39.9795 4.77718 40.0487 5.88571C40.0514 5.92748 40.0527 5.96932 40.0527 6.01116V41.9889C40.0527 43.0996 39.1523 44 38.0416 44C38.0115 44 37.9814 43.9993 37.9513 43.998L11.1073 42.7923C10.0618 42.7454 9.22707 41.9045 9.18782 40.8587Z"/></g></mask><g mask="url(#mask0_94_18762)"><path id="Vector_2" fill="#FF4785" d="M9.18782 40.8587L7.94871 7.84179C7.90778 6.75137 8.74388 5.82725 9.83294 5.75918L37.9161 4.00398C39.0247 3.9347 39.9795 4.77718 40.0487 5.88571C40.0514 5.92748 40.0527 5.96932 40.0527 6.01116V41.9889C40.0527 43.0996 39.1523 44 38.0416 44C38.0115 44 37.9814 43.9993 37.9513 43.998L11.1073 42.7923C10.0618 42.7454 9.22707 41.9045 9.18782 40.8587Z"/><path id="Vector_3" fill="white" d="M31.6547 8.91664L31.8465 4.30302L35.7032 4L35.8693 8.75786C35.8751 8.92344 35.7456 9.06237 35.58 9.06815C35.5091 9.07062 35.4396 9.04789 35.3839 9.00399L33.8966 7.83238L32.1358 9.16811C32.0038 9.26825 31.8156 9.24241 31.7154 9.11041C31.6733 9.05484 31.6518 8.98632 31.6547 8.91664ZM26.7224 19.0765C26.7224 19.859 31.9928 19.484 32.7003 18.9344C32.7003 13.6062 29.8413 10.8063 24.606 10.8063C19.3707 10.8063 16.4375 13.6498 16.4375 17.9149C16.4375 25.3434 26.4625 25.4856 26.4625 29.5375C26.4625 30.6749 25.9056 31.3502 24.6803 31.3502C23.0837 31.3502 22.4525 30.5348 22.5268 27.7624C22.5268 27.161 16.4375 26.9735 16.2519 27.7624C15.7791 34.4808 19.9648 36.4187 24.7545 36.4187C29.3957 36.4187 33.0344 33.9448 33.0344 29.4664C33.0344 21.5048 22.8609 21.718 22.8609 17.7727C22.8609 16.1733 24.0491 15.96 24.7545 15.96C25.4971 15.96 26.8338 16.0909 26.7224 19.0765Z"/></g></g></g></svg>

<svg xmlns="http://www.w3.org/2000/svg" fill="none" aria-hidden="true" viewBox="0 0 48 48"><mask id="a" width="34" height="40" x="7" y="4" maskUnits="userSpaceOnUse" style="mask-type:alpha"><path fill="#fff" d="M9.188 40.859 7.948 7.842a2.011 2.011 0 0 1 1.885-2.083l28.083-1.755a2.011 2.011 0 0 1 2.137 2.007V41.99a2.011 2.011 0 0 1-2.102 2.009l-26.844-1.206a2.011 2.011 0 0 1-1.92-1.933Z"/></mask><g mask="url(#a)"><path fill="#FF4785" d="M9.188 40.859 7.948 7.842a2.011 2.011 0 0 1 1.885-2.083l28.083-1.755a2.011 2.011 0 0 1 2.137 2.007V41.99a2.011 2.011 0 0 1-2.102 2.009l-26.844-1.206a2.011 2.011 0 0 1-1.92-1.933Z"/><path fill="#fff" d="m31.655 8.917.191-4.614L35.703 4l.166 4.758a.3.3 0 0 1-.485.246l-1.487-1.172-1.761 1.336a.3.3 0 0 1-.481-.251Zm-4.933 10.16c0 .782 5.27.407 5.978-.143 0-5.328-2.859-8.128-8.094-8.128-5.235 0-8.169 2.844-8.169 7.109 0 7.428 10.025 7.57 10.025 11.623 0 1.137-.556 1.812-1.782 1.812-1.596 0-2.227-.815-2.153-3.588 0-.601-6.09-.788-6.275 0-.473 6.719 3.713 8.657 8.503 8.657 4.64 0 8.28-2.474 8.28-6.953 0-7.961-10.174-7.748-10.174-11.693 0-1.6 1.188-1.813 1.893-1.813.743 0 2.08.13 1.968 3.116Z"/></g></svg>
